X:1
T:We Shall Be Like Him
T:We Shall Be Like Him
T:Charles Hutchinson Gabriel
T:Charles Hutchinson Gabriel, 1909
T:Public Domain Courtesy of the Cyber Hymnal™
T:Public Domain Courtesy of the Cyber Hymnal™
C:Charles Hutchinson Gabriel
Z:Public Domain
Z:Courtesy of the Cyber Hymnal™
%%score ( 1 2 ) ( 3 4 )
L:1/8
Q:1/4=150
M:6/4
K:Bb
V:1 treble 
V:2 treble 
V:3 bass 
V:4 bass 
V:1
 [DF]2 [DG]2 [DA]2 [DB]2 [EA]2 [FB]2 | [Fc]2 [Fd]2 [Ec]2 [DB]6 | %2
w: 1.~We shall be like Him, O|won- der- ful thought!|
w: 2.~Eye hath not seen, nor hath|ear ev- er heard|
w: 3.~Why, then, re- pine when the|road- way is rough?|
w: 4.~We shall be like Him, the|hope of the soul;|
 [GB]2 [^FA]2 [GB]2 [Gc]2 [GB]2 [EG]2 | [DF]2 [FB]2 [Fd]2 c6 | %4
w: Bless- èd the hope the as-|sur- ance hath wrought:|
w: What we shall be but, a|voice from His word|
w: Are not His word and the|prom- ise e- nough?|
w: We shall be like Him, made|per- fect- ly whole;|
 [DF]2 [DG]2 [DA]2 [DB]2 [EA]2 [FB]2 | [Fc]2 [FB]2 [Fc]2 [Fd]6 | %6
w: Changed from the sor- row and|tri- als of years,|
w: Whis- pers a mes- sage that|charms all our fears,|
w: Rain- bows of love span the|val- ley of tears,|
w: Caught up with saints, as the|fir- ma- ment clears,|
 [Gc]2 [Gd]2 [Ge]2 [Fd]2 !fermata![Fd]2 [FB]2 | [EA]2 [DB]2 [Ec]2 [DB]6 || %8
w: We shall be like Him, when|Je- sus ap- pears.|
w: We shall be like Him, when|Je- sus ap- pears.|
w: We shall be like Him, when|Je- sus ap- pears.|
w: We shall be like Him, when|Je- sus ap- pears.|
"^Refrain" [Ec]8 [EF]2 [EG]2 | [DF]6 B6 | [=Ed]8 [EG]2 [Ed]2 |"^riten." [Fc]4 [Fd]2 [Fe]6 | %12
w: ||||
w: We shall be|like Him,|Oh, how the|prom- ise cheers!|
w: ||||
w: ||||
 d8 [=E^c]2 [Fd]2 | !fermata![Ff]6 !fermata![Fd]4 [FB]2 | c8 [Fd]2 [Ec]2 | [DB]6- [DB]4 z2 |] %16
w: ||||
w: We shall be|like Him, when|Je- sus ap-|pears. *|
w: ||||
w: ||||
V:2
 x12 | x12 | x12 | x6 (F4 E2) | x12 | x12 | x12 | x12 || x12 | x6 (D4 F2) | x12 | x12 | %12
 (F2 F2 F2 F2) x4 | x12 | (E2 E2 E2 E2) x4 | x12 |] %16
V:3
 [B,,B,]2 [B,,B,]2 [B,,B,]2 [B,,F,]2 [C,F,]2 [D,B,]2 | [F,A,]2 [F,A,]2 [F,A,]2 [B,,B,]6 | %2
w: ~ ~ ~ ~ ~ ~|~ ~ ~ ~|
 [E,B,]2 [E,B,]2 [E,B,]2 [E,E]2 [E,E]2 [E,B,]2 | [B,,B,]2 [D,B,]2 [B,,B,]2 [F,A,]6 | %4
w: ~ ~ ~ ~ ~ ~|~ ~ ~ ~|
 [B,,B,]2 [B,,B,]2 [B,,B,]2 [B,,F,]2 [C,F,]2 [D,B,]2 | [F,A,]2 [F,G,]2 [F,A,]2 [B,,B,]6 | %6
w: ~ ~ ~ ~ ~ ~|~ ~ ~ ~|
 [E,B,]2 [E,B,]2 [E,B,]2 [F,B,]2 !fermata![F,B,]2 [F,D]2 | [F,C]2 [F,B,]2 [F,A,]2 [B,,B,]6 || %8
w: ~ ~ ~ ~ ~ ~|~ ~ ~ ~|
 [F,A,]2 [F,A,]2 [F,A,]2 [F,A,]4 [F,A,]2 | [B,,B,]2 [B,,A,]2 [B,,G,]2 [B,,F,]4 [D,B,]2 | %10
w: We shall be like Him,|we shall be like Him,|
 [C,B,]2 [C,G,]2 [C,D]2 [C,C]2 [C,B,]2 [C,G,]2 | [F,A,]4 [F,B,]2 [F,C]6 | %12
w: Oh, how the hope of the|prom- ise cheers!|
 [B,,B,]2 [B,,A,]2 [B,,G,]2 [B,,F,]2 [B,,G,]2 [B,,B,]2 | %13
w: We shall be like Him, be|
 !fermata![B,D]6 !fermata![B,,B,]4 [D,B,]2 | [F,A,]2 [F,A,]2 [F,A,]2 [F,A,]2 [F,B,]2 F,2 | %15
w: like Him, When|Je- sus in glo- ry ap-|
 [B,,F,]6- [B,,F,]4 z2 |] %16
w: pears. *|
V:4
 x12 | x12 | x12 | x12 | x12 | x12 | x12 | x12 || x12 | x12 | x12 | x12 | x12 | x12 | x10 F,2 | %15
 x12 |] %16

